X: 7677
T:Polska fr J\"amtland
R:Polska
O:Sweden
M:3/4
D:Ville Roempke, Caprice series J\"amtland one.
A:J\"amtland
K:DLydian
(A|\
(3A)Bc de fd|(3efg a2fa|(3=gag (3ege cd\
|1 ea (3fed dc :|2 (3efe d3 (A::
(3A)Bc cd d2|ED (3CDE ED|\
D>c c<e e>c|cd/c/ (3BAG B{cB}(A|\
(3A)Bc c<d d2|ED (3CDE ED|\
D>c c<e e2|cd/c/ (3BAG (A2|\
(3A)Bc de (3fed|(3efg a3c|c<d d3:|
